austria/municipalities/10716.svg

<?xml version="1.0" encoding="UTF-8" standalone="no"?>
<!-- Created with Inkscape (http://www.inkscape.org/) -->
<svg
   xmlns:svg="http://www.w3.org/2000/svg"
   xmlns="http://www.w3.org/2000/svg"
   version="1.0"
   width="199.90625"
   height="227.75"
   id="svg20991">
  <defs
     id="defs20993" />
  <g
     transform="translate(-54.15625,-108.875)"
     id="layer1">
    <path
       d="M 56.15625,110.875 L 56.15625,208.8125 L 56.15625,215.65625 L 56.15625,236.6875 C 56.15625,290.9535 99.858995,334.62501 154.125,334.625 C 208.391,334.625 252.0625,290.9535 252.0625,236.6875 L 252.0625,215.65625 L 252.0625,208.8125 L 252.0625,110.875 L 154.125,110.875 L 56.15625,110.875 z "
       style="opacity:1;fill:#0067cb;fill-opacity:1;fill-rule:nonzero;stroke:#000000;stroke-width:4;stroke-linecap:square;stroke-linejoin:miter;stroke-miterlimit:4;stroke-dasharray:none;stroke-dashoffset:0;stroke-opacity:1"
       id="rect22042" />
    <path
       d="M 133.34375,159.4375 L 143.71875,159.4375 L 143.71875,224.90625 C 141.66934,228.98387 136.98002,230.15624 135.03125,230.15625 C 132.50487,230.15625 126.59375,229.89055 126.59375,221.75 C 126.59375,213.60944 126.59375,129.40624 126.59375,129.40625 L 99.09375,159.71875 L 112,159.71875 C 112.43288,159.71875 111.75787,208.64718 112,217.8125 C 112.17426,224.20674 111.73463,230.85179 116.5,234.9375 C 124.05849,241.41795 130.54261,244.19939 136.4375,250.375 C 142.33238,256.55059 144,271.71876 144,271.71875 L 151.5625,271.71875 L 153,271.71875 L 160.5625,271.71875 C 160.5625,271.71876 162.23012,256.55059 168.125,250.375 C 174.01989,244.19939 180.50401,241.41795 188.0625,234.9375 C 192.82787,230.85179 192.38824,224.20674 192.5625,217.8125 C 192.80463,208.64718 192.12962,159.71875 192.5625,159.71875 L 205.46875,159.71875 L 177.96875,129.40625 C 177.96875,129.40624 177.96875,213.60944 177.96875,221.75 C 177.96875,229.89055 172.05763,230.15625 169.53125,230.15625 C 167.58248,230.15624 162.89316,228.98387 160.84375,224.90625 L 160.84375,159.4375 L 171.21875,159.4375 L 152.28125,129.53125 L 133.34375,159.4375 z "
       style="opacity:1;fill:#ffffff;fill-opacity:1;fill-rule:evenodd;stroke:#000000;stroke-width:1.5;stroke-linecap:butt;stroke-linejoin:miter;stroke-miterlimit:4;stroke-dasharray:none;stroke-opacity:1"
       id="path21057" />
    <path
       d="M 68.375,139.0625 C 68.375,139.0625 77.934728,150.76662 77.0625,156 C 76.190269,161.23339 68.687503,163.34375 68.6875,163.34375 C 68.6875,163.34375 79.1173,172.19088 79.96875,180.125 C 80.571119,185.7381 71.812503,188.5625 71.8125,188.5625 C 71.8125,188.5625 80.786808,194.47398 80.09375,202.1875 C 79.6741,206.85812 71.218751,208.56251 71.21875,208.5625 C 71.21875,208.5625 85.894524,216.01781 83.15625,227.53125 C 81.899505,232.8154 69.78125,233.90625 69.78125,233.90625 C 69.78125,233.90625 75.295094,238.27611 79.65625,243.21875 C 84.017404,248.16139 81.131335,250.79707 96.25,265.625 C 111.36867,280.45292 143.625,286.84375 143.625,286.84375 L 146.4375,287.09375 C 129.98467,290.80533 116.20915,295.29204 107.21875,301.15625 L 124.84375,309.9375 C 131.27614,301.36472 140.96219,294.37373 153.21875,288.625 C 165.466,294.37198 175.13356,301.3693 181.5625,309.9375 L 199.1875,301.15625 C 190.1971,295.29204 176.42158,290.80533 159.96875,287.09375 L 162.78125,286.84375 C 162.78125,286.84375 195.03758,280.45292 210.15625,265.625 C 225.27491,250.79707 222.38885,248.16139 226.75,243.21875 C 231.11116,238.27611 236.625,233.90625 236.625,233.90625 C 236.625,233.90625 224.50675,232.8154 223.25,227.53125 C 220.51173,216.01781 235.1875,208.5625 235.1875,208.5625 C 235.1875,208.56251 226.73215,206.85812 226.3125,202.1875 C 225.61944,194.47398 234.59375,188.5625 234.59375,188.5625 C 234.59375,188.5625 225.83513,185.7381 226.4375,180.125 C 227.28895,172.19088 237.71875,163.34375 237.71875,163.34375 C 237.71875,163.34375 230.21598,161.23339 229.34375,156 C 228.47152,150.76662 238.03125,139.0625 238.03125,139.0625 C 238.03125,139.06249 225.85957,141.75752 217.71875,153.96875 C 209.57793,166.17998 207.5625,178.09851 207.5625,189.4375 C 207.5625,200.77649 207.83544,230.42445 205.21875,239.4375 C 202.60205,248.45055 195.64161,269.4027 177.90625,278.125 C 170.22301,282.40754 161.72187,284.50983 153.21875,285.1875 C 144.59643,285.24334 136.33689,281.63475 128.5,278.125 C 110.76464,269.4027 103.8042,248.45055 101.1875,239.4375 C 98.570812,230.42445 98.843751,200.77649 98.84375,189.4375 C 98.84375,178.09851 96.828322,166.17998 88.6875,153.96875 C 80.54668,141.75752 68.375004,139.06249 68.375,139.0625 z "
       style="opacity:1;fill:#ffffff;fill-opacity:1;fill-rule:evenodd;stroke:#000000;stroke-width:1.5;stroke-linecap:butt;stroke-linejoin:miter;stroke-miterlimit:4;stroke-dasharray:none;stroke-opacity:1"
       id="path22034" />
  </g>
</svg>

<svg xmlns="http://www.w3.org/2000/svg" version="1.0" width="199.906" height="227.75"><path d="M56.156 110.875V236.687c0 54.267 43.703 97.938 97.969 97.938 54.266 0 97.938-43.671 97.938-97.938V110.876H56.156z" style="opacity:1;fill:#0067cb;fill-opacity:1;fill-rule:nonzero;stroke:#000;stroke-width:4;stroke-linecap:square;stroke-linejoin:miter;stroke-miterlimit:4;stroke-dasharray:none;stroke-dashoffset:0;stroke-opacity:1" transform="translate(-54.156 -108.875)"/><path d="M133.344 159.438h10.375v65.468c-2.05 4.078-6.739 5.25-8.688 5.25-2.526 0-8.437-.265-8.437-8.406v-92.344l-27.5 30.313H112c.433 0-.242 48.928 0 58.094.174 6.394-.265 13.039 4.5 17.125 7.558 6.48 14.043 9.261 19.938 15.437 5.894 6.176 7.562 21.344 7.562 21.344h16.563s1.667-15.168 7.562-21.344c5.895-6.176 12.379-8.957 19.938-15.438 4.765-4.085 4.325-10.73 4.5-17.125.242-9.165-.433-58.093 0-58.093h12.906l-27.5-30.313v92.344c0 8.14-5.911 8.406-8.438 8.406-1.949 0-6.638-1.172-8.687-5.25v-65.469h10.375l-18.938-29.906-18.937 29.906z" style="opacity:1;fill:#fff;fill-opacity:1;fill-rule:evenodd;stroke:#000;stroke-width:1.5;stroke-linecap:butt;stroke-linejoin:miter;stroke-miterlimit:4;stroke-dasharray:none;stroke-opacity:1" transform="translate(-54.156 -108.875)"/><path d="M68.375 139.063s9.56 11.704 8.688 16.937c-.873 5.233-8.375 7.344-8.376 7.344 0 0 10.43 8.847 11.282 16.781.602 5.613-8.156 8.438-8.156 8.438s8.974 5.911 8.28 13.625c-.419 4.67-8.874 6.375-8.874 6.375s14.676 7.455 11.937 18.968c-1.256 5.284-13.375 6.375-13.375 6.375s5.514 4.37 9.875 9.313c4.361 4.942 1.475 7.578 16.594 22.406 15.119 14.828 47.375 21.219 47.375 21.219l2.813.25c-16.453 3.711-30.229 8.198-39.22 14.062l17.626 8.781c6.432-8.572 16.118-15.563 28.375-21.312 12.247 5.747 21.915 12.744 28.344 21.313l17.625-8.782c-8.99-5.864-22.766-10.35-39.22-14.062l2.813-.25s32.257-6.391 47.375-21.219c15.119-14.828 12.233-17.464 16.594-22.406 4.361-4.943 9.875-9.313 9.875-9.313s-12.118-1.09-13.375-6.375c-2.738-11.513 11.938-18.969 11.938-18.969s-8.456-1.704-8.875-6.375c-.694-7.713 8.28-13.625 8.28-13.625s-8.758-2.824-8.155-8.437c.851-7.934 11.28-16.781 11.28-16.781s-7.502-2.11-8.374-7.344c-.872-5.233 8.687-16.938 8.687-16.938s-12.171 2.696-20.312 14.907c-8.141 12.211-10.156 24.13-10.156 35.469 0 11.338.272 40.986-2.344 50-2.617 9.013-9.577 29.965-27.313 38.687-7.683 4.283-16.184 6.385-24.687 7.063-8.623.055-16.882-3.553-24.719-7.063-17.735-8.722-24.696-29.674-27.313-38.688-2.616-9.013-2.343-38.66-2.343-50 0-11.338-2.016-23.257-10.156-35.468-8.141-12.211-20.313-14.907-20.313-14.906z" style="opacity:1;fill:#fff;fill-opacity:1;fill-rule:evenodd;stroke:#000;stroke-width:1.5;stroke-linecap:butt;stroke-linejoin:miter;stroke-miterlimit:4;stroke-dasharray:none;stroke-opacity:1" transform="translate(-54.156 -108.875)"/></svg>
